X:1
T:Whistling Rufus
M:4/4
L:1/8
K:C
 G2| CC C2 E2 GG| c2 cc A2 G2| C3 CE D C2| G4 z2| G2| CC C2 E2 GG|\
 c2 c2 A G3| d2 dd dB AA| d4 z2| G2| CC C2 E2 GG| cc ccA-G GG| CC CC E2 G2|\
 G6| GG| A3 c c2 A2| A2 AA GE CD| E2 EE D2 D2| C4 z| ec e| g2 g2- ga gf|\
 B2 B2- Bd ef| a2 a2- ab ag| e2 e2- e| ec e| g2 g2- g a/2a/2 gc| f2 f2- f z2 f|\
 ee e e/2d/2 A2 B2| c6||
